!!!OTL: 748. Die heilige Nacht.
!!!COM: F. Gruber
!!!ODT: 1818
!!!ARE: Europa, Mitteleuropa, Deutschland
!!!SCT: B0748
!!!TXL: @@DE
!!!YEM: Copyright 1995, estate of Helmut Schaffrath.
**kern	**text
*ICvox	*
*Ivox	*
*M6/8	*
*k[]	*
*C:	*
=1	=1
!LO:TX:a:t=Langſam und ſanft.	!
!LO:TX:a:t=P:only higher voice encoded:problem	!
{8.gL	Stil-
16aJ	.
8g	-le
4.e	Nacht,
=2	=2
8.g	hei-
16a	-li-
8g	-ge
4.e}	Nacht!
=3	=3
{4dd	Al-
16ddL	-les
16bJ	.
4.b	ſchläft,
=4	=4
4cc	ein-
16ccL	-ſam
16gJ	.
4.g}	wacht
=5	=5
{4a	nur
8a	das
8.cc	trau-
16b	-te
8a	hoch-
=6	=6
8.g	-hei-
16a	-li-
8g	-ge
4.e}	Paar.
=7	=7
{4a	Hol-
8a	-der
8.cc	Kna-
16b	-be
8a	im
=8	=8
8.g	lo-
16a	-cki-
8g	-gen
4.e}	Haar,
=9	=9
{4dd	ſchlaf'
8dd	in
8.ff	himm-
16dd	-li-
8b	-ſcher
=10	=10
(4.cc	Ruh'!
4ee)	.
8r}	.
=11	=11
{8ccL	Schlaf'
8gJ	.
8e	in
8.g	himm-
16f	-li-
8d	-ſcher
=12	=12
[4.c	Ruh'!
4c]	.
8r}	.
==	==
!!!AGN: Weihnachts - Lied, religioes
!!!GTL: Religioese Lieder
!!!ONB: ESAC (Essen Associative Code) Database: BOEHME
!!!AMT: compound duple
!!!AIN: vox
!!!EED: Helmut Schaffrath
!!!EEV: 1.0
!!Mel. v. Franʒ Gruber, 24. Dec. 1818.
!!Joſ. Mohr. 1818.
!!@@COMMENT:"!!Dieſes ſchöne, in ganʒ Deutſchland von Kindern geſungene und von den Eltern gern gehörte
!!Weihnachtslied iſt kein Volkslied, aus dem Ʒillerthal von Emigranten mitgebracht, auch nicht von
!!Mich. Haydn oder Aiblinger komponirt, wie man ohne allen Grund ʒeither angegeben hat, ſondern
!!nach endgültiger Forſchung Erk's und nach beglaubigter Ausſage des wahren Komponiſten ſelbſt
!!iſt der Text 1818 gedichtet von Joſeph Mohr, damals Hilfsprieſter ʒu Oberndorf bei Salʒburg.
!!Die Melodie daʒu komponirte am 24. Dec. 1818 ſein muſikaliſcher Freund Franʒ Gruber, damals
!!Lehrer und Organiſt im benachbarten Arnsdorf ſunfern Laufen bei Salʒburg). - Am Chriſtabend
!!24. Dec. 1818 wurde das Lied in der Kirche ʒu Oberndorf ʒuerſt aufgeführt und ʒwar mit Guitarre-
!!begleitung, als Erſatʒ der unbrauchbar gewordenen Orgel. Der Dichter als Tenoriſt ſang die
!!Melodie und ſpielte daʒu die Guitarre; der Komponiſt (Baß) ſang die ʒweite Stimme; etliche aus
!!dem Dorfe herʒugeholte und raſch eingeübte Sängerinnen ſangen nach Gehör den Chor daʒu d. h.
!!die Wiederholung der ʒwei Schlußʒeilen. Das Lied fand ungetheilten Beifall und ſpäter weite
!!Verbreitung, beſonders hat es ſich ſeit 1840 nach und nach durch ganʒ Deutſchland verpflanʒt.
!!Weil es der Salʒburger Gegend entſtammte, ſo muthmaßte man einen Salʒburger Kapellmeiſter
!!Mich. Haydn oder Aiblinger) als Urheber der Melodie, welcher Jrrthum nun berichtigt iſt."
!!@@END:
!!!Text: J. Mohr
!!!URL-scan: https://archive.org/details/BoehmeVtLieder1895/page/n601/mode/2up
!!!ENC: Anna Maria Matuszewska
!!!EEV: 2024/19/07
*-	*-
